X: 1
T: Cadgers of the Canongate
M: C
L: 1/8
R: Strathspey, Fling or Reel
F: http://www.ibiblio.org/fiddlers/CA_CAIS.htm
K: G
B | GBGB (de/f/) ge | dBgB A/A/A (AB) | GBGB (de/f/) ge | dBgB G/G/G G :|
g | b>age g>edB | GBgB A/A/A Aa | b>age g>edB | dBgB G/G/G G |]
g | b>age g>edB | GBgB A/A/A Aa | bgae gdeB | dBgB G/G/G G |]
